X: 1
T: Rio Tango
O: as played by BLT
S: printed MS of unknown origin
Z: 2010 John Chambers <jc:trillian.mit.edu>
P: I(ABAC)2
M: C
L: a/8
K: Dm
.D.E "Intro"|\
"Dm"(F.A) zA A2 A2 | "Gm".B.c d4 .c.B |\
"A7"(A.E) z.G F2 E2 | "Dm"D6 \
!Segno!\
|: .D.E "A"|\
"Dm"(FA.) zA A2 A2 | "A7"GA/G/ E4 .E.F |
"A7"(G.A) z.G F2 E2 | "Dm"EF/E/ D4 DE |\
"Dm"(F.A) zA (A2 =B2) | "Am".c.d e4 .e.e |\
"E7"(d^G2) A =B2 c2 | "A7"=B=c/B/ A2- .Az DE |
"Dm"(F.A) zA A2A2 | "A7"GA/G/ E4 .E.F |\
"A7"(G.A) z.G F2E2 | "Dm"EF/E/ D4 DE |\
"Dm"(F.A) zA A2A2 | "Gm".B.c d4 .c.B |
"A7"(A.E) zG F2 E2 | "Dm"D4- .Dz |]|\
[K:D] ^FG "B"|\
"D"(A.F) zG "Ddim"A2 B2 | "A7"G4 z2 GA |\
"A7"(B.G) zA "Aaug"B2 c2 | "D"A4 zD FG |
"D"(A.f) zf f2 {^g}a2 | "Em"e4 zd2c |\
"A"(B.e) zc "Aaub"B2 c2 | "D"Bc/B/ A2 zD FG |\
"D"(A.F) zG "Ddim"A2 B2 | "A7"G4 z2 GA |
"A7"(B.G) zA "Aaug"B2 c2 | "D"A4 zD FG |\
"D"(A.d) zd c2 ^B2 | "F#m"c4 zc AB |\
"C#7"(c.d) zc (3B2 ^G2 c2 | "A7"c4 z2 !Segno!|]|
[K:F] =c2 "C"|\
"F"(3f2 f2 d2 "C"e4- | e4 d4 |\
"F"(3cdc A6- | A4- A3 c |\
"C7"(d2 c6- | c3) A (3A2 B2A2 |
"F"(3GAG F6- | F2 z2 c4 |\
"F"(3f2 f2 g2 (a4- | "F7"a4 f4) |\
"Bb"(3efe d6- | "Bb"dz G2 A2 B2 | "F"(c.d) zc A2F2 |
|[1 "C"(G.A) zG E2 C2 | {DE}"F"F8 | "F"z.F .G.^G "A7".Az \
:|[2 "Gm"(3G2 A2 B2 "C7"(3c2 d2 e2 | "F"f8- | "F".f2 "C7"zc "F".fz |]


%%sep 1 1 500

%%sep 1 1 500

